Catalina-light/apps/scalable/keepassxc.svg

<?xml version="1.0" encoding="UTF-8" standalone="no"?>
<!-- Created with Inkscape (http://www.inkscape.org/) -->

<svg
   xmlns:dc="http://purl.org/dc/elements/1.1/"
   xmlns:cc="http://creativecommons.org/ns#"
   xmlns:rdf="http://www.w3.org/1999/02/22-rdf-syntax-ns#"
   xmlns:svg="http://www.w3.org/2000/svg"
   xmlns="http://www.w3.org/2000/svg"
   xmlns:xlink="http://www.w3.org/1999/xlink"
   xmlns:sodipodi="http://sodipodi.sourceforge.net/DTD/sodipodi-0.dtd"
   xmlns:inkscape="http://www.inkscape.org/namespaces/inkscape"
   version="1.1"
   id="svg2"
   width="128"
   height="128"
   viewBox="0 0 128 128"
   sodipodi:docname="keepassxc.svg"
   inkscape:version="0.92.2pre0 (973e216, 2017-07-25)">
  <metadata
     id="metadata8">
    <rdf:RDF>
      <cc:Work
         rdf:about="">
        <dc:format>image/svg+xml</dc:format>
        <dc:type
           rdf:resource="http://purl.org/dc/dcmitype/StillImage" />
        <dc:title></dc:title>
      </cc:Work>
    </rdf:RDF>
  </metadata>
  <defs
     id="defs6">
    <linearGradient
       inkscape:collect="always"
       id="linearGradient838">
      <stop
         style="stop-color:#ffb780;stop-opacity:1"
         offset="0"
         id="stop834" />
      <stop
         id="stop842"
         offset="0.5"
         style="stop-color:#87dc9d;stop-opacity:1" />
      <stop
         style="stop-color:#7d93e6;stop-opacity:1"
         offset="1"
         id="stop836" />
    </linearGradient>
    <linearGradient
       inkscape:collect="always"
       xlink:href="#linearGradient838"
       id="linearGradient840"
       x1="1.4453142"
       y1="64.226161"
       x2="127.22057"
       y2="64.226161"
       gradientUnits="userSpaceOnUse" />
    <linearGradient
       id="linearGradient3866">
      <stop
         style="stop-color:#000000;stop-opacity:0.52083331"
         offset="0"
         id="stop3868" />
      <stop
         style="stop-color:#2883c3;stop-opacity:0;"
         offset="1"
         id="stop3870" />
    </linearGradient>
    <linearGradient
       id="linearGradient3874">
      <stop
         style="stop-color:#000d0e;stop-opacity:0.84105963;"
         offset="0"
         id="stop3876" />
      <stop
         style="stop-color:#000000;stop-opacity:0;"
         offset="1"
         id="stop3878" />
    </linearGradient>
    <clipPath
       id="clipPath892"
       clipPathUnits="userSpaceOnUse">
      <path
         inkscape:connector-curvature="0"
         id="path894"
         d="M 38.524123,20.232391 V 51.2388 h 3.597154 V 20.232391 Z M 14.125746,21.0025 V 52.010565 H 17.7229 V 21.0025 Z M 5.9924018,21.259203 V 52.267267 H 9.591212 V 21.259203 Z m 24.3983772,1.37129 v 31.006409 h 3.597153 V 22.630493 Z m -20.330877,1.626338 v 31.008065 h 3.597154 V 24.256831 Z m 24.396721,0.08612 v 31.008065 h 3.598809 V 24.342951 Z M 1.9265577,25.798705 V 56.80677 H 5.5237118 V 25.798705 Z m 16.2650323,0.08612 v 31.008064 h 3.597155 V 25.884825 Z m 24.398377,0 v 31.008064 h 3.597154 V 25.884825 Z m -16.265033,2.22752 v 31.006408 h 3.597155 V 28.112345 Z M 22.25909,30.76715 v 31.008065 h 3.597155 V 30.76715 Z"
         style="fill:#ffffff;fill-opacity:0.25520833;stroke:none;stroke-width:1.52630627;stroke-linecap:round;stroke-linejoin:round;stroke-miterlimit:4;stroke-dasharray:none;stroke-opacity:1" />
    </clipPath>
    <clipPath
       clipPathUnits="userSpaceOnUse"
       id="clipPath3881">
      <path
         sodipodi:type="arc"
         style="fill:#008dff;fill-opacity:1;fill-rule:evenodd;stroke:none"
         id="path3883"
         sodipodi:cx="539.5"
         sodipodi:cy="152.5"
         sodipodi:rx="103.5"
         sodipodi:ry="103.5"
         d="m 643,152.5 a 103.5,103.5 0 1 1 -207,0 103.5,103.5 0 1 1 207,0 z"
         transform="translate(-412,-17)" />
    </clipPath>
    <linearGradient
       id="linearGradient4019">
      <stop
         offset="0"
         style="stop-color:#adcce1;stop-opacity:1;"
         id="stop4021" />
      <stop
         offset="0.26238"
         style="stop-color:#6bbfe1;stop-opacity:1;"
         id="stop4023" />
      <stop
         offset="0.74620908"
         style="stop-color:#2596d1;stop-opacity:1;"
         id="stop4025" />
      <stop
         offset="1"
         style="stop-color:#2372c0;stop-opacity:1;"
         id="stop4027" />
    </linearGradient>
    <linearGradient
       id="linearGradient4085">
      <stop
         offset="0"
         style="stop-color:#ffffff;stop-opacity:1"
         id="stop4087" />
      <stop
         offset="0.06316455"
         style="stop-color:#ffffff;stop-opacity:0.2"
         id="stop4089" />
      <stop
         offset="0.95056331"
         style="stop-color:#ffffff;stop-opacity:0.2"
         id="stop4091" />
      <stop
         offset="1"
         style="stop-color:#ffffff;stop-opacity:0.39215687"
         id="stop4093" />
    </linearGradient>
    <filter
       id="filter3174"
       color-interpolation-filters="sRGB">
      <feGaussianBlur
         stdDeviation="1.71"
         id="feGaussianBlur3176" />
    </filter>
    <linearGradient
       gradientTransform="scale(1.0058652,0.994169)"
       gradientUnits="userSpaceOnUse"
       id="ButtonShadow"
       y2="7.0165396"
       x2="45.447727"
       y1="92.539597"
       x1="45.447727">
      <stop
         offset="0"
         style="stop-color:#000000;stop-opacity:1"
         id="stop3750" />
      <stop
         offset="1"
         style="stop-color:#000000;stop-opacity:0.58823532"
         id="stop3752" />
    </linearGradient>
    <linearGradient
       id="linearGradient5048-8-7">
      <stop
         offset="0"
         style="stop-color:#000000;stop-opacity:0"
         id="stop5050-4-2" />
      <stop
         offset="0.5"
         style="stop-color:#000000;stop-opacity:1"
         id="stop5056-7-4" />
      <stop
         offset="1"
         style="stop-color:#000000;stop-opacity:0"
         id="stop5052-0-1-7" />
    </linearGradient>
    <linearGradient
       id="linearGradient5060-29-0">
      <stop
         offset="0"
         style="stop-color:#000000;stop-opacity:1"
         id="stop5062-9-7" />
      <stop
         offset="1"
         style="stop-color:#000000;stop-opacity:0"
         id="stop5064-08-2" />
    </linearGradient>
    <linearGradient
       id="linearGradient3851">
      <stop
         id="stop3853"
         style="stop-color:#5b8da7;stop-opacity:1;"
         offset="0" />
      <stop
         id="stop3855"
         style="stop-color:#1c3447;stop-opacity:1;"
         offset="1" />
    </linearGradient>
    <filter
       id="filter3174-0"
       color-interpolation-filters="sRGB">
      <feGaussianBlur
         stdDeviation="1.71"
         id="feGaussianBlur3176-9" />
    </filter>
    <clipPath
       id="clipPath916"
       clipPathUnits="userSpaceOnUse">
      <g
         id="g920"
         inkscape:label="circulo"
         style="display:inline;opacity:0.98999999;fill:#126136;fill-opacity:1"
         transform="matrix(1.1503549,0,0,1.1503549,-4.4861245,-7.5255648)">
        <path
           style="fill:#126136;fill-opacity:1;stroke:none;stroke-width:1.4909519"
           d="M 44.322082,27.405077 A 19.729762,19.729765 0 0 1 24.59232,47.134842 19.729762,19.729765 0 0 1 4.8625579,27.405077 19.729762,19.729765 0 0 1 24.59232,7.6753138 19.729762,19.729765 0 0 1 44.322082,27.405077 Z"
           id="path918"
           inkscape:connector-curvature="0" />
      </g>
    </clipPath>
    <linearGradient
       id="linearGradient3764"
       x1="1"
       x2="47"
       gradientUnits="userSpaceOnUse"
       gradientTransform="rotate(-90,23.999998,24)">
      <stop
         stop-color="#0bb8f9"
         stop-opacity="1"
         id="stop7" />
      <stop
         offset="1"
         stop-color="#20bef9"
         stop-opacity="1"
         id="stop9" />
    </linearGradient>
    <clipPath
       id="clipPath-275571731">
      <g
         transform="translate(0,-1004.3622)"
         id="g12">
        <path
           d="m -24,13 c 0,1.105 -0.672,2 -1.5,2 -0.828,0 -1.5,-0.895 -1.5,-2 0,-1.105 0.672,-2 1.5,-2 0.828,0 1.5,0.895 1.5,2 z"
           transform="matrix(15.333333,0,0,11.5,414.99999,878.8622)"
           id="path14"
           inkscape:connector-curvature="0"
           style="fill:#1890d0" />
      </g>
    </clipPath>
    <clipPath
       id="clipPath-284952804">
      <g
         transform="translate(0,-1004.3622)"
         id="g17">
        <path
           d="m -24,13 c 0,1.105 -0.672,2 -1.5,2 -0.828,0 -1.5,-0.895 -1.5,-2 0,-1.105 0.672,-2 1.5,-2 0.828,0 1.5,0.895 1.5,2 z"
           transform="matrix(15.333333,0,0,11.5,414.99999,878.8622)"
           id="path19"
           inkscape:connector-curvature="0"
           style="fill:#1890d0" />
      </g>
    </clipPath>
    <linearGradient
       inkscape:collect="always"
       xlink:href="#linearGradient3764"
       id="linearGradient3806"
       gradientUnits="userSpaceOnUse"
       gradientTransform="rotate(-90,23.999998,24)"
       x1="1"
       x2="47" />
    <clipPath
       id="clipPath892-3"
       clipPathUnits="userSpaceOnUse">
      <path
         inkscape:connector-curvature="0"
         id="path894-5"
         d="M 38.524123,20.232391 V 51.2388 h 3.597154 V 20.232391 Z M 14.125746,21.0025 V 52.010565 H 17.7229 V 21.0025 Z M 5.9924018,21.259203 V 52.267267 H 9.591212 V 21.259203 Z m 24.3983772,1.37129 v 31.006409 h 3.597153 V 22.630493 Z m -20.330877,1.626338 v 31.008065 h 3.597154 V 24.256831 Z m 24.396721,0.08612 v 31.008065 h 3.598809 V 24.342951 Z M 1.9265577,25.798705 V 56.80677 H 5.5237118 V 25.798705 Z m 16.2650323,0.08612 v 31.008064 h 3.597155 V 25.884825 Z m 24.398377,0 v 31.008064 h 3.597154 V 25.884825 Z m -16.265033,2.22752 v 31.006408 h 3.597155 V 28.112345 Z M 22.25909,30.76715 v 31.008065 h 3.597155 V 30.76715 Z"
         style="fill:#ffffff;fill-opacity:0.25520833;stroke:none;stroke-width:1.52630627;stroke-linecap:round;stroke-linejoin:round;stroke-miterlimit:4;stroke-dasharray:none;stroke-opacity:1" />
    </clipPath>
    <clipPath
       clipPathUnits="userSpaceOnUse"
       id="clipPath3881-6">
      <path
         sodipodi:type="arc"
         style="fill:#008dff;fill-opacity:1;fill-rule:evenodd;stroke:none"
         id="path3883-2"
         sodipodi:cx="539.5"
         sodipodi:cy="152.5"
         sodipodi:rx="103.5"
         sodipodi:ry="103.5"
         d="m 643,152.5 a 103.5,103.5 0 1 1 -207,0 103.5,103.5 0 1 1 207,0 z"
         transform="translate(-412,-17)" />
    </clipPath>
    <filter
       id="filter3174-06"
       color-interpolation-filters="sRGB">
      <feGaussianBlur
         stdDeviation="1.71"
         id="feGaussianBlur3176-2" />
    </filter>
    <filter
       id="filter3174-0-7"
       color-interpolation-filters="sRGB">
      <feGaussianBlur
         stdDeviation="1.71"
         id="feGaussianBlur3176-9-5" />
    </filter>
    <clipPath
       id="clipPath916-9"
       clipPathUnits="userSpaceOnUse">
      <g
         id="g920-2"
         inkscape:label="circulo"
         style="display:inline;opacity:0.98999999;fill:#126136;fill-opacity:1"
         transform="matrix(1.1503549,0,0,1.1503549,-4.4861245,-7.5255648)">
        <path
           style="fill:#126136;fill-opacity:1;stroke:none;stroke-width:1.4909519"
           d="M 44.322082,27.405077 A 19.729762,19.729765 0 0 1 24.59232,47.134842 19.729762,19.729765 0 0 1 4.8625579,27.405077 19.729762,19.729765 0 0 1 24.59232,7.6753138 19.729762,19.729765 0 0 1 44.322082,27.405077 Z"
           id="path918-2"
           inkscape:connector-curvature="0" />
      </g>
    </clipPath>
    <clipPath
       id="clipPath891"
       clipPathUnits="userSpaceOnUse">
      <g
         id="g897"
         inkscape:label="circulo"
         style="display:inline;opacity:0.98999999;fill:#ccaaff;fill-opacity:1"
         transform="matrix(1.0616564,0,0,1.0616564,-2.519108,-5.3090608)">
        <path
           style="fill:#ccaaff;fill-opacity:1;stroke:none;stroke-width:1.4909519"
           d="M 44.322082,27.405077 A 19.729762,19.729765 0 0 1 24.59232,47.134842 19.729762,19.729765 0 0 1 4.8625579,27.405077 19.729762,19.729765 0 0 1 24.59232,7.6753138 19.729762,19.729765 0 0 1 44.322082,27.405077 Z"
           id="path893"
           inkscape:connector-curvature="0" />
        <path
           inkscape:connector-curvature="0"
           id="path895"
           d="M 44.322082,27.405077 A 19.729762,19.729765 0 0 1 24.59232,47.134842 19.729762,19.729765 0 0 1 4.8625579,27.405077 19.729762,19.729765 0 0 1 24.59232,7.6753138 19.729762,19.729765 0 0 1 44.322082,27.405077 Z"
           style="fill:#ccaaff;fill-opacity:1;stroke:none;stroke-width:1.4909519" />
      </g>
    </clipPath>
    <clipPath
       id="clipPath4178"
       clipPathUnits="userSpaceOnUse">
      <circle
         style="opacity:1;fill:#1c5266;fill-opacity:0.19099205;fill-rule:evenodd;stroke:none;stroke-width:3.33392239;stroke-linecap:butt;stroke-linejoin:miter;stroke-miterlimit:4;stroke-dasharray:none;stroke-dashoffset:0;stroke-opacity:1"
         id="circle4180"
         cx="204.3168"
         cy="222.68037"
         r="225" />
    </clipPath>
    <clipPath
       id="clipPath4178-1"
       clipPathUnits="userSpaceOnUse">
      <circle
         style="opacity:1;fill:#1c5266;fill-opacity:0.19099205;fill-rule:evenodd;stroke:none;stroke-width:3.33392239;stroke-linecap:butt;stroke-linejoin:miter;stroke-miterlimit:4;stroke-dasharray:none;stroke-dashoffset:0;stroke-opacity:1"
         id="circle4180-7"
         cx="204.3168"
         cy="222.68037"
         r="225" />
    </clipPath>
    <linearGradient
       id="linearGradient4050-7">
      <stop
         style="stop-color:#ffffff;stop-opacity:0.66929132;"
         offset="0"
         id="stop4052-6" />
      <stop
         style="stop-color:#ffffff;stop-opacity:0;"
         offset="1"
         id="stop4054-0" />
    </linearGradient>
    <linearGradient
       gradientTransform="matrix(0,-1,-1,0,0,0)"
       x2="-50.520779"
       x1="-5.3196001"
       id="linearGradient4132-3"
       gradientUnits="userSpaceOnUse">
      <stop
         id="stop29-7"
         stop-color="#f65454"
         offset="0" />
      <stop
         id="stop31-0"
         stop-color="#740000"
         offset="1" />
    </linearGradient>
    <linearGradient
       gradientTransform="matrix(0,-1,-1,0,0,0)"
       x2="-1.64257"
       x1="-39.333229"
       id="linearGradient3298-8-9"
       gradientUnits="userSpaceOnUse">
      <stop
         style="stop-color:#5f0e0e;stop-opacity:1;"
         id="stop24-3"
         stop-color="#791235"
         offset="0" />
      <stop
         id="stop26-3"
         stop-color="#dd3b27"
         offset="1" />
    </linearGradient>
    <linearGradient
       id="linearGradient8265-821-176-38-919-66-249-7-7">
      <stop
         id="stop2687-1-9"
         style="stop-color:#ffffff;stop-opacity:1"
         offset="0" />
      <stop
         id="stop2689-5-4"
         style="stop-color:#ffffff;stop-opacity:0"
         offset="1" />
    </linearGradient>
    <linearGradient
       id="linearGradient3924">
      <stop
         id="stop3926"
         style="stop-color:#ffffff;stop-opacity:1;"
         offset="0" />
      <stop
         offset="0.06316455"
         style="stop-color:#ffffff;stop-opacity:0.23529412;"
         id="stop3928" />
      <stop
         id="stop3930"
         style="stop-color:#ffffff;stop-opacity:0.15686275;"
         offset="0.95056331" />
      <stop
         id="stop3932"
         style="stop-color:#ffffff;stop-opacity:0.39215687;"
         offset="1" />
    </linearGradient>
    <linearGradient
       id="linearGradient3688-166-749">
      <stop
         id="stop2883"
         style="stop-color:#181818;stop-opacity:1"
         offset="0" />
      <stop
         id="stop2885"
         style="stop-color:#181818;stop-opacity:0"
         offset="1" />
    </linearGradient>
    <linearGradient
       id="linearGradient3702-501-757">
      <stop
         id="stop2895"
         style="stop-color:#181818;stop-opacity:0"
         offset="0" />
      <stop
         id="stop2897"
         style="stop-color:#181818;stop-opacity:1"
         offset="0.5" />
      <stop
         id="stop2899"
         style="stop-color:#181818;stop-opacity:0"
         offset="1" />
    </linearGradient>
    <linearGradient
       id="linearGradient3895-9-0-3">
      <stop
         id="stop3897-0-5-7"
         style="stop-color:#dc6838;stop-opacity:1"
         offset="0" />
      <stop
         id="stop3899-8-7-06"
         style="stop-color:#ba3d12;stop-opacity:1"
         offset="1" />
    </linearGradient>
    <linearGradient
       inkscape:collect="always"
       xlink:href="#linearGradient3895-9-0-3"
       id="linearGradient4195"
       gradientUnits="userSpaceOnUse"
       gradientTransform="translate(12,-100)"
       x1="28.53125"
       y1="994.81909"
       x2="28.53125"
       y2="1044.3767" />
    <linearGradient
       id="linearGradient4067-0-2">
      <stop
         style="stop-color:#ffe452;stop-opacity:1;"
         offset="0"
         id="stop4069-2-9" />
      <stop
         style="stop-color:#ffeb41;stop-opacity:0;"
         offset="1"
         id="stop4071-8-9" />
    </linearGradient>
    <linearGradient
       id="linearGradient4644-104-3-3-6-2">
      <stop
         offset="0"
         style="stop-color:#ff7a35;stop-opacity:1;"
         id="stop5237-6-5-1-7" />
      <stop
         offset="1"
         style="stop-color:#f0431a;stop-opacity:1;"
         id="stop5239-4-6-4-8" />
    </linearGradient>
  </defs>
  <sodipodi:namedview
     pagecolor="#ffffff"
     bordercolor="#666666"
     borderopacity="1"
     objecttolerance="10"
     gridtolerance="10"
     guidetolerance="10"
     inkscape:pageopacity="0"
     inkscape:pageshadow="2"
     inkscape:window-width="1360"
     inkscape:window-height="740"
     id="namedview4"
     showgrid="false"
     inkscape:zoom="2.528"
     inkscape:cx="-13.556064"
     inkscape:cy="60.924892"
     inkscape:window-x="0"
     inkscape:window-y="0"
     inkscape:window-maximized="1"
     inkscape:current-layer="svg2" />
  <path
     style="fill:#000000;stroke-width:1.33333337"
     d=""
     id="path849"
     inkscape:connector-curvature="0" />
  <path
     style="fill:#000000;stroke-width:1.33333337"
     d=""
     id="path847"
     inkscape:connector-curvature="0" />
  <path
     style="color:#000000;font-style:normal;font-variant:normal;font-weight:normal;font-stretch:normal;font-size:medium;line-height:normal;font-family:sans-serif;font-variant-ligatures:normal;font-variant-position:normal;font-variant-caps:normal;font-variant-numeric:normal;font-variant-alternates:normal;font-feature-settings:normal;text-indent:0;text-align:start;text-decoration:none;text-decoration-line:none;text-decoration-style:solid;text-decoration-color:#000000;letter-spacing:normal;word-spacing:normal;text-transform:none;writing-mode:lr-tb;direction:ltr;text-orientation:mixed;dominant-baseline:auto;baseline-shift:baseline;text-anchor:start;white-space:normal;shape-padding:0;clip-rule:nonzero;display:inline;overflow:visible;visibility:visible;opacity:1;isolation:auto;mix-blend-mode:normal;color-interpolation:sRGB;color-interpolation-filters:linearRGB;solid-color:#000000;solid-opacity:1;vector-effect:none;fill:url(#linearGradient840);fill-opacity:1;fill-rule:nonzero;stroke:none;stroke-width:4.64485502;stroke-linecap:butt;stroke-linejoin:miter;stroke-miterlimit:4;stroke-dasharray:none;stroke-dashoffset:0;stroke-opacity:1;color-rendering:auto;image-rendering:auto;shape-rendering:auto;text-rendering:auto;enable-background:accumulate"
     d="m 64.333592,1.3385313 c -34.704539,0 -62.8882778,28.1824517 -62.8882778,62.8869837 0,34.704538 28.1837388,62.888275 62.8882778,62.888275 34.704538,0 62.886978,-28.183737 62.886978,-62.888275 0,-34.704532 -28.18244,-62.8869837 -62.886978,-62.8869837 z"
     id="circle1062"
     inkscape:connector-curvature="0"
     sodipodi:nodetypes="sssss" />
  <path
     style="fill:#ffffff;fill-opacity:1"
     d="M 64.332031 7.4628906 C 32.982451 7.4632045 7.5686734 32.876982 7.5683594 64.226562 C 7.5686753 95.576142 32.982452 120.98992 64.332031 120.99023 C 95.682374 120.991 121.09734 95.576905 121.09766 64.226562 C 121.09735 32.876219 95.682375 7.4621235 64.332031 7.4628906 z M 44.873047 39.205078 A 25.020569 25.020569 0 0 1 67.275391 53.105469 L 97.693359 53.105469 L 108.81445 64.226562 L 97.693359 75.347656 L 94.914062 75.347656 L 90.744141 80.90625 L 86.574219 75.347656 L 82.404297 75.347656 L 76.84375 80.90625 L 71.283203 75.347656 L 67.253906 75.347656 A 25.020569 25.020569 0 0 1 44.873047 89.248047 A 25.020569 25.020569 0 0 1 19.851562 64.226562 A 25.020569 25.020569 0 0 1 44.873047 39.205078 z M 36.533203 53.105469 A 11.120253 11.120253 0 0 0 25.412109 64.226562 A 11.120253 11.120253 0 0 0 36.533203 75.347656 A 11.120253 11.120253 0 0 0 47.652344 64.226562 A 11.120253 11.120253 0 0 0 36.533203 53.105469 z M 69.892578 55.886719 L 69.892578 61.447266 L 94.914062 61.447266 L 94.914062 55.886719 L 69.892578 55.886719 z "
     id="path844" />
</svg>

<svg width="128" height="128" version="1.1" viewBox="0 0 128 128" xmlns="http://www.w3.org/2000/svg">
<defs>
<linearGradient id="linearGradient840" x1="1.4453" x2="127.22" y1="64.226" y2="64.226" gradientUnits="userSpaceOnUse"/>
</defs>
<path d="m64.334 1.3385c-34.705 0-62.888 28.182-62.888 62.887 0 34.705 28.184 62.888 62.888 62.888 34.705 0 62.887-28.184 62.887-62.888 0-34.705-28.182-62.887-62.887-62.887z" color="#000000" color-rendering="auto" dominant-baseline="auto" fill="url(#linearGradient840)" image-rendering="auto" shape-rendering="auto" solid-color="#000000" style="font-feature-settings:normal;font-variant-alternates:normal;font-variant-caps:normal;font-variant-ligatures:normal;font-variant-numeric:normal;font-variant-position:normal;isolation:auto;mix-blend-mode:normal;shape-padding:0;text-decoration-color:#000000;text-decoration-line:none;text-decoration-style:solid;text-indent:0;text-orientation:mixed;text-transform:none;white-space:normal"/>
<path d="m64.332 7.4629c-31.35 3.139e-4 -56.763 25.414-56.764 56.764 3.159e-4 31.35 25.414 56.763 56.764 56.764 31.35 7.7e-4 56.765-25.413 56.766-56.764-3.1e-4 -31.35-25.415-56.764-56.766-56.764zm-19.459 31.742a25.021 25.021 0 0 1 22.402 13.9h30.418l11.121 11.121-11.121 11.121h-2.7793l-4.1699 5.5586-4.1699-5.5586h-4.1699l-5.5605 5.5586-5.5605-5.5586h-4.0293a25.021 25.021 0 0 1-22.381 13.9 25.021 25.021 0 0 1-25.021-25.021 25.021 25.021 0 0 1 25.021-25.021zm-8.3398 13.9a11.12 11.12 0 0 0-11.121 11.121 11.12 11.12 0 0 0 11.121 11.121 11.12 11.12 0 0 0 11.119-11.121 11.12 11.12 0 0 0-11.119-11.121zm33.359 2.7812v5.5605h25.021v-5.5605h-25.021z" fill="#fff"/>
</svg>
